svgs/regular/rectangle-list.svg

<svg xmlns="http://www.w3.org/2000/svg" viewBox="0 0 576 512"><!-- Font Awesome Pro 6.0.0-alpha2 by @fontawesome - https://fontawesome.com License - https://fontawesome.com/license (Commercial License) --><path d="M512 32H64C28.654 32 0 60.652 0 96V416C0 451.346 28.654 480 64 480H512C547.346 480 576 451.346 576 416V96C576 60.652 547.346 32 512 32ZM528 416C528 424.822 520.822 432 512 432H64C55.178 432 48 424.822 48 416V96C48 87.178 55.178 80 64 80H512C520.822 80 528 87.178 528 96V416ZM128 128C110.326 128 96 142.326 96 160C96 177.672 110.326 192 128 192S160 177.672 160 160C160 142.326 145.674 128 128 128ZM128 224C110.326 224 96 238.326 96 256C96 273.672 110.326 288 128 288S160 273.672 160 256C160 238.326 145.674 224 128 224ZM128 320C110.326 320 96 334.326 96 352C96 369.672 110.326 384 128 384S160 369.672 160 352C160 334.326 145.674 320 128 320ZM456 136H216C202.75 136 192 146.75 192 160S202.75 184 216 184H456C469.25 184 480 173.25 480 160S469.25 136 456 136ZM456 232H216C202.75 232 192 242.75 192 256S202.75 280 216 280H456C469.25 280 480 269.25 480 256S469.25 232 456 232ZM456 328H216C202.75 328 192 338.75 192 352S202.75 376 216 376H456C469.25 376 480 365.25 480 352S469.25 328 456 328Z"/></svg>

<svg xmlns="http://www.w3.org/2000/svg" viewBox="0 0 576 512"><!--! Font Awesome Pro 6.0.0-alpha3 by @fontawesome - https://fontawesome.com License - https://fontawesome.com/license (Commercial License) --><path d="M512 32H64C28.65 32 0 60.65 0 96v320c0 35.35 28.65 64 64 64h448c35.35 0 64-28.65 64-64V96C576 60.65 547.3 32 512 32zM528 416c0 8.822-7.178 16-16 16H64c-8.822 0-16-7.178-16-16V96c0-8.822 7.178-16 16-16h448c8.822 0 16 7.178 16 16V416zM128 128C110.3 128 96 142.3 96 160c0 17.67 14.33 32 32 32s32-14.33 32-32C160 142.3 145.7 128 128 128zM128 224C110.3 224 96 238.3 96 256c0 17.67 14.33 32 32 32s32-14.33 32-32C160 238.3 145.7 224 128 224zM128 320c-17.67 0-32 14.33-32 32c0 17.67 14.33 32 32 32s32-14.33 32-32C160 334.3 145.7 320 128 320zM456 136H215.1C202.7 136 192 146.8 192 160S202.7 184 215.1 184H456c13.25 0 24-10.75 24-24S469.3 136 456 136zM456 232H215.1C202.7 232 192 242.8 192 256c0 13.25 10.75 24 23.1 24H456c13.25 0 24-10.75 24-24C480 242.7 469.3 232 456 232zM456 328H215.1C202.7 328 192 338.8 192 352s10.75 24 23.1 24H456c13.25 0 24-10.75 24-24S469.3 328 456 328z"/></svg>
